public/img/cachet-logo.svg

<?xml version="1.0" encoding="UTF-8" standalone="no"?>
<svg width="1150px" height="296px" viewBox="0 0 1150 296" version="1.1" xmlns="http://www.w3.org/2000/svg" xmlns:xlink="http://www.w3.org/1999/xlink" xmlns:sketch="http://www.bohemiancoding.com/sketch/ns">
    <!-- Generator: Sketch 3.3.2 (12043) - http://www.bohemiancoding.com/sketch -->
    <title>Cachet</title>
    <desc>Created with Sketch.</desc>
    <defs></defs>
    <g id="Page-1" stroke="none" stroke-width="1" fill="none" fill-rule="evenodd" sketch:type="MSPage">
        <g id="Cachet" sketch:type="MSArtboardGroup">
            <g id="Icon" sketch:type="MSLayerGroup" transform="translate(8.000000, 10.000000)">
                <path d="M199.244333,22.4585705 L203.404333,18.2157048 C183.533553,6.62470379 160.519693,0 135.988769,0 C60.8842456,0 0,62.0970314 0,138.697602 C0,215.298172 60.8842456,277.395203 135.988769,277.395203 C211.093292,277.395203 271.977537,215.298172 271.977537,138.697602 C271.977537,121.684565 268.974197,105.386969 263.478763,90.3262455 L263.478763,90.3262455 L259.05104,94.8421666 C263.754498,108.572636 266.311339,123.33058 266.311339,138.697602 C266.311339,212.106481 207.963937,271.616136 135.988769,271.616136 C64.0136007,271.616136 5.66619869,212.106481 5.66619869,138.697602 C5.66619869,65.2887218 64.0136007,5.77906673 135.988769,5.77906673 C158.943672,5.77906673 180.512426,11.8320993 199.244333,22.4585705 L199.244333,22.4585705 Z" id="Oval-1" stroke="#7ED321" stroke-width="12" sketch:type="MSShapeGroup"></path>
                <path d="M103.408124,172.71149 L104.22048,171.882953 L265.301897,7.59286967 L271.527992,1.24275363 L283.980182,13.9429858 L277.754087,20.2931018 L116.67267,184.583185 L115.860315,185.411722 L103.408126,198.111956 L97.182031,191.76184 L52.2352474,145.919738 L46.0091523,139.569622 L58.4613426,126.86939 L64.6874377,133.219506 L103.408124,172.71149 L103.408124,172.71149 Z" id="Line" fill="#7ED321" sketch:type="MSShapeGroup"></path>
            </g>
            <path d="M335,147 C335,136.33328 336.874981,125.708386 340.625,115.125 C344.375019,104.541614 349.833298,95.083375 357,86.75 C364.166702,78.416625 372.999948,71.6250262 383.5,66.375 C394.000052,61.1249738 405.9166,58.5 419.25,58.5 C435.083413,58.5 448.583278,62.0832975 459.75,69.25 C470.916722,76.4167025 479.249973,85.7499425 484.75,97.25 L470.75,105.75 C467.916652,99.9166375 464.50002,95.00002 460.5,91 C456.49998,86.99998 452.16669,83.7500125 447.5,81.25 C442.83331,78.7499875 438.000025,76.9583387 433,75.875 C427.999975,74.7916613 423.083358,74.25 418.25,74.25 C407.58328,74.25 398.166708,76.416645 390,80.75 C381.833292,85.083355 374.958361,90.749965 369.375,97.75 C363.791639,104.750035 359.583348,112.624956 356.75,121.375 C353.916652,130.125044 352.5,138.999955 352.5,148 C352.5,157.833382 354.208316,167.249955 357.625,176.25 C361.041684,185.250045 365.708304,193.208299 371.625,200.125 C377.541696,207.041701 384.541626,212.541646 392.625,216.625 C400.708374,220.708354 409.499953,222.75 419,222.75 C424.000025,222.75 429.124974,222.125006 434.375,220.875 C439.625026,219.624994 444.708309,217.625014 449.625,214.875 C454.541691,212.124986 459.083313,208.708354 463.25,204.625 C467.416687,200.541646 470.916652,195.583363 473.75,189.75 L488.25,197.25 C485.416652,203.9167 481.416693,209.791641 476.25,214.875 C471.083307,219.958359 465.333365,224.249982 459,227.75 C452.666635,231.250018 445.958369,233.916657 438.875,235.75 C431.791631,237.583343 424.833368,238.5 418,238.5 C405.833273,238.5 394.666718,235.83336 384.5,230.5 C374.333282,225.16664 365.58337,218.208376 358.25,209.625 C350.91663,201.041624 345.208354,191.291721 341.125,180.375 C337.041646,169.458279 335,158.33339 335,147 L335,147 Z M549,239.5 C542.3333,239.5 536.250027,238.458344 530.75,236.375 C525.249973,234.291656 520.541686,231.416685 516.625,227.75 C512.708314,224.083315 509.666677,219.833358 507.5,215 C505.333323,210.166642 504.25,205.08336 504.25,199.75 C504.25,193.74997 505.58332,188.291691 508.25,183.375 C510.91668,178.458309 514.666642,174.250018 519.5,170.75 C524.333357,167.249982 530.124966,164.541676 536.875,162.625 C543.625034,160.708324 551.083292,159.75 559.25,159.75 C565.750032,159.75 572.416632,160.333327 579.25,161.5 C586.083368,162.666673 592.16664,164.333323 597.5,166.5 L597.5,154.75 C597.5,143.249943 594.208366,134.125034 587.625,127.375 C581.041634,120.624966 572.166722,117.25 561,117.25 C553.999965,117.25 547.041701,118.58332 540.125,121.25 C533.208299,123.91668 526.166702,127.749975 519,132.75 L513,121.5 C521.500043,115.833305 529.74996,111.583348 537.75,108.75 C545.75004,105.916652 554.08329,104.5 562.75,104.5 C578.583413,104.5 591.16662,109.083287 600.5,118.25 C609.83338,127.416713 614.5,140.083253 614.5,156.25 L614.5,215 C614.5,219.66669 616.49998,222 620.5,222 L620.5,237 C619.16666,237.166668 617.916673,237.291666 616.75,237.375 C615.583327,237.458334 614.583337,237.5 613.75,237.5 C610.41665,237.5 607.375014,236.50001 604.625,234.5 C601.874986,232.49999 600.333335,229.50002 600,225.5 L599.5,215.25 C593.833305,222.916705 586.375046,228.874979 577.125,233.125 C567.874954,237.375021 558.500047,239.5 549,239.5 L549,239.5 Z M553.25,226.5 C560.750037,226.5 568.208296,224.875016 575.625,221.625 C583.041704,218.374984 588.916645,213.916695 593.25,208.25 C594.416673,206.749992 595.416663,205.125009 596.25,203.375 C597.083337,201.624991 597.5,200.000008 597.5,198.5 L597.5,177.25 C591.833305,175.083323 585.916698,173.416673 579.75,172.25 C573.583302,171.083327 567.583363,170.5 561.75,170.5 C549.583273,170.5 539.708371,172.958309 532.125,177.875 C524.541629,182.791691 520.75,189.58329 520.75,198.25 C520.75,201.750018 521.41666,205.16665 522.75,208.5 C524.08334,211.83335 526.124986,214.83332 528.875,217.5 C531.625014,220.16668 534.99998,222.333325 539,224 C543.00002,225.666675 547.749973,226.5 553.25,226.5 L553.25,226.5 Z M643,171.5 C643,162.333288 644.583318,153.666708 647.75,145.5 C650.916682,137.333292 655.374971,130.208364 661.125,124.125 C666.875029,118.041636 673.74996,113.250018 681.75,109.75 C689.75004,106.249982 698.583285,104.5 708.25,104.5 C720.583395,104.5 731.333288,107.291639 740.5,112.875 C749.666713,118.458361 756.58331,125.999953 761.25,135.5 L744.75,140.75 C741.083315,134.0833 736.000032,128.875019 729.5,125.125 C722.999968,121.374981 715.75004,119.5 707.75,119.5 C701.0833,119.5 694.875029,120.83332 689.125,123.5 C683.374971,126.16668 678.375021,129.791644 674.125,134.375 C669.874979,138.958356 666.541679,144.416635 664.125,150.75 C661.708321,157.083365 660.5,163.999963 660.5,171.5 C660.5,178.83337 661.749987,185.749967 664.25,192.25 C666.750013,198.750033 670.166645,204.374976 674.5,209.125 C678.833355,213.875024 683.874971,217.624986 689.625,220.375 C695.375029,223.125014 701.499968,224.5 708,224.5 C712.166687,224.5 716.291646,223.916673 720.375,222.75 C724.458354,221.583327 728.249982,219.958344 731.75,217.875 C735.250018,215.791656 738.249987,213.41668 740.75,210.75 C743.250012,208.08332 744.999995,205.250015 746,202.25 L762.5,207.25 C760.666657,211.91669 758.000018,216.208314 754.5,220.125 C750.999982,224.041686 746.875024,227.458319 742.125,230.375 C737.374976,233.291681 732.125029,235.541659 726.375,237.125 C720.624971,238.708341 714.666698,239.5 708.5,239.5 C698.999953,239.5 690.25004,237.708351 682.25,234.125 C674.24996,230.541649 667.333363,225.625031 661.5,219.375 C655.666637,213.124969 651.125016,205.916708 647.875,197.75 C644.624984,189.583292 643,180.83338 643,171.5 L643,171.5 Z M898.5,237 L881.5,237 L881.5,164.25 C881.5,149.416593 878.958359,138.33337 873.875,131 C868.791641,123.66663 861.333382,120 851.5,120 C846.666642,120 841.875024,120.958324 837.125,122.875 C832.374976,124.791676 827.916687,127.41665 823.75,130.75 C819.583313,134.08335 815.958349,137.999977 812.875,142.5 C809.791651,147.000023 807.500008,151.91664 806,157.25 L806,237 L789,237 L789,54.5 L806,54.5 L806,136.25 C811.33336,126.416618 818.583287,118.666695 827.75,113 C836.916712,107.333305 846.749947,104.5 857.25,104.5 C864.750037,104.5 871.124974,105.874986 876.375,108.625 C881.625026,111.375014 885.874984,115.208309 889.125,120.125 C892.375016,125.041691 894.749992,130.958299 896.25,137.875 C897.750008,144.791701 898.5,152.416625 898.5,160.75 L898.5,237 Z M990.75,239.5 C981.249952,239.5 972.50004,237.708351 964.5,234.125 C956.49996,230.541649 949.583363,225.625031 943.75,219.375 C937.916637,213.124969 933.375016,205.916708 930.125,197.75 C926.874984,189.583292 925.25,180.83338 925.25,171.5 C925.25,162.333288 926.874984,153.708374 930.125,145.625 C933.375016,137.541626 937.916637,130.458364 943.75,124.375 C949.583363,118.291636 956.458294,113.458351 964.375,109.875 C972.291706,106.291649 980.999953,104.5 990.5,104.5 C1000.00005,104.5 1008.70829,106.291649 1016.625,109.875 C1024.54171,113.458351 1031.33331,118.333303 1037,124.5 C1042.66669,130.666697 1047.08332,137.74996 1050.25,145.75 C1053.41668,153.75004 1055,162.249955 1055,171.25 C1055,172.58334 1054.95833,173.91666 1054.875,175.25 C1054.79167,176.58334 1054.66667,177.499998 1054.5,178 L943.25,178 C943.750002,185.000035 945.374986,191.458304 948.125,197.375 C950.875014,203.291696 954.374979,208.416645 958.625,212.75 C962.875021,217.083355 967.791639,220.458321 973.375,222.875 C978.958361,225.291679 984.916635,226.5 991.25,226.5 C995.583355,226.5 999.833312,225.916673 1004,224.75 C1008.16669,223.583327 1011.99998,222.00001 1015.5,220 C1019.00002,217.99999 1022.12499,215.541681 1024.875,212.625 C1027.62501,209.708319 1029.74999,206.500018 1031.25,203 L1046,207 C1043.99999,211.833358 1041.16669,216.208314 1037.5,220.125 C1033.83332,224.041686 1029.58336,227.458319 1024.75,230.375 C1019.91664,233.291681 1014.58336,235.541659 1008.75,237.125 C1002.91664,238.708341 996.916698,239.5 990.75,239.5 L990.75,239.5 Z M1038.75,165 C1038.25,157.999965 1036.62501,151.625029 1033.875,145.875 C1031.12499,140.124971 1027.62502,135.166687 1023.375,131 C1019.12498,126.833313 1014.1667,123.583345 1008.5,121.25 C1002.8333,118.916655 996.833365,117.75 990.5,117.75 C984.166635,117.75 978.166695,118.916655 972.5,121.25 C966.833305,123.583345 961.875021,126.833313 957.625,131 C953.374979,135.166687 949.958346,140.166638 947.375,146 C944.791654,151.833362 943.250003,158.166632 942.75,165 L1038.75,165 Z M1142.25,230.75 C1141.25,231.250002 1139.79168,231.916663 1137.875,232.75 C1135.95832,233.583337 1133.75001,234.416663 1131.25,235.25 C1128.74999,236.083337 1125.91668,236.83333 1122.75,237.5 C1119.58332,238.16667 1116.25002,238.5 1112.75,238.5 C1109.08332,238.5 1105.58335,238.000005 1102.25,237 C1098.91665,235.999995 1096.00001,234.458344 1093.5,232.375 C1090.99999,230.291656 1089.00001,227.666683 1087.5,224.5 C1085.99999,221.333318 1085.25,217.666687 1085.25,213.5 L1085.25,120.25 L1067.25,120.25 L1067.25,106.75 L1085.25,106.75 L1085.25,62.75 L1102.25,62.75 L1102.25,106.75 L1132.25,106.75 L1132.25,120.25 L1102.25,120.25 L1102.25,208.75 C1102.58334,213.583358 1104.24998,217.124989 1107.25,219.375 C1110.25002,221.625011 1113.83331,222.75 1118,222.75 C1122.83336,222.75 1127.08331,221.958341 1130.75,220.375 C1134.41669,218.791659 1136.75,217.66667 1137.75,217 L1142.25,230.75 Z" id="CachetHQ" fill="#5E5E5E" sketch:type="MSShapeGroup"></path>
        </g>
    </g>
</svg>

<svg width="1150" height="296" viewBox="0 0 1150 296" xmlns="http://www.w3.org/2000/svg"><g fill="none" fill-rule="evenodd"><path d="M207.24433 32.45857l4.16-4.24287C191.53355 16.6247 168.5197 10 143.98877 10 68.88425 10 8 72.09703 8 148.6976s60.88425 138.6976 135.98877 138.6976c75.10452 0 135.98877-62.09703 135.98877-138.6976 0-17.01303-3.00334-33.31063-8.49878-48.37135l-4.42772 4.51592c4.70346 13.73047 7.2603 28.4884 7.2603 43.85543 0 73.40888-58.3474 132.91854-130.32257 132.91854-71.97517 0-130.32257-59.50966-130.32257-132.91854 0-73.40888 58.3474-132.91853 130.32257-132.91853 22.9549 0 44.52366 6.05303 63.25556 16.6795z" stroke="#7ED321" stroke-width="12"/><path d="M111.40812 182.7115l.81236-.82855L273.3019 17.59287l6.2261-6.35012L291.98017 23.943l-6.2261 6.3501-161.0814 164.2901-.81236.82852-12.4522 12.70024-6.2261-6.35012-44.94677-45.8421-6.2261-6.35012 12.4522-12.70023 6.2261 6.3501 38.72067 39.492z" fill="#7ED321"/><path d="M335 147c0-10.66672 1.87498-21.2916 5.625-31.875 3.75002-10.5834 9.2083-20.04162 16.375-28.375 7.1667-8.33338 15.99995-15.12497 26.5-20.375 10.50005-5.25003 22.4166-7.875 35.75-7.875 15.8334 0 29.33328 3.5833 40.5 10.75 11.16672 7.1667 19.49997 16.49994 25 28l-14 8.5c-2.83335-5.83336-6.24998-10.74998-10.25-14.75-4.00002-4.00002-8.3333-7.25-13-9.75-4.6667-2.5-9.49998-4.29166-14.5-5.375-5.00002-1.08334-9.91664-1.625-14.75-1.625-10.66672 0-20.0833 2.16665-28.25 6.5-8.1667 4.33335-15.04164 9.99997-20.625 17-5.58336 7.00003-9.79165 14.87496-12.625 23.625-2.83335 8.75004-4.25 17.62495-4.25 26.625 0 9.83338 1.70832 19.24995 5.125 28.25 3.41668 9.00005 8.0833 16.9583 14 23.875 5.9167 6.9167 12.91663 12.41665 21 16.5 8.08337 4.08335 16.87495 6.125 26.375 6.125 5.00002 0 10.12497-.625 15.375-1.875 5.25003-1.25 10.3333-3.25 15.25-6 4.9167-2.75 9.4583-6.16665 13.625-10.25 4.1667-4.08335 7.66665-9.04164 10.5-14.875l14.5 7.5c-2.83335 6.6667-6.8333 12.54164-12 17.625-5.1667 5.08336-10.91663 9.37498-17.25 12.875-6.33337 3.50002-13.04163 6.16666-20.125 8-7.08337 1.83334-14.04163 2.75-20.875 2.75-12.16673 0-23.33328-2.66664-33.5-8-10.16672-5.33336-18.91663-12.29162-26.25-20.875-7.33337-8.58338-13.04165-18.33328-17.125-29.25C337.04165 169.45828 335 158.3334 335 147zm214 92.5c-6.6667 0-12.74997-1.04166-18.25-3.125-5.50003-2.08334-10.2083-4.9583-14.125-8.625-3.9167-3.6667-6.95832-7.91664-9.125-12.75-2.16668-4.83336-3.25-9.91664-3.25-15.25 0-6.00003 1.33332-11.4583 4-16.375 2.66668-4.9167 6.41664-9.12498 11.25-12.625 4.83336-3.50002 10.62497-6.20832 17.375-8.125 6.75003-1.91668 14.2083-2.875 22.375-2.875 6.50003 0 13.16663.58333 20 1.75 6.83337 1.16667 12.91664 2.83332 18.25 5v-11.75c0-11.50006-3.29163-20.62497-9.875-27.375-6.58337-6.75003-15.45828-10.125-26.625-10.125-7.00004 0-13.9583 1.33332-20.875 4-6.9167 2.66668-13.9583 6.49998-21.125 11.5l-6-11.25c8.50004-5.6667 16.74996-9.91665 24.75-12.75 8.00004-2.83335 16.3333-4.25 25-4.25 15.8334 0 28.41662 4.5833 37.75 13.75 9.33338 9.1667 14 21.83325 14 38V215c0 4.6667 1.99998 7 6 7v15c-1.33334.16667-2.58333.29167-3.75.375-1.16667.08333-2.16666.125-3 .125-3.33335 0-6.375-1-9.125-3s-4.29166-4.99998-4.625-9l-.5-10.25c-5.6667 7.6667-13.12495 13.62498-22.375 17.875-9.25005 4.25002-18.62495 6.375-28.125 6.375zm4.25-13c7.50004 0 14.9583-1.62498 22.375-4.875 7.4167-3.25002 13.29165-7.7083 17.625-13.375 1.16667-1.5 2.16666-3.125 3-4.875.83334-1.75 1.25-3.375 1.25-4.875v-21.25c-5.6667-2.16668-11.5833-3.83333-17.75-5-6.1667-1.16667-12.16664-1.75-18-1.75-12.16673 0-22.04163 2.4583-29.625 7.375-7.58337 4.9167-11.375 11.7083-11.375 20.375 0 3.50002.66666 6.91665 2 10.25 1.33334 3.33335 3.375 6.33332 6.125 9 2.75 2.66668 6.12498 4.83333 10.125 6.5 4.00002 1.66667 8.74997 2.5 14.25 2.5zm89.75-55c0-9.1667 1.58332-17.8333 4.75-26 3.16668-8.1667 7.62497-15.29164 13.375-21.375 5.75003-6.08336 12.62496-10.87498 20.625-14.375 8.00004-3.50002 16.8333-5.25 26.5-5.25 12.3334 0 23.0833 2.79164 32.25 8.375 9.1667 5.58336 16.0833 13.12495 20.75 22.625l-16.5 5.25c-3.6667-6.6667-8.74997-11.87498-15.25-15.625-6.50003-3.75002-13.74996-5.625-21.75-5.625-6.6667 0-12.87497 1.33332-18.625 4-5.75003 2.66668-10.74998 6.29164-15 10.875-4.25002 4.58336-7.58332 10.04164-10 16.375-2.41668 6.33336-3.625 13.24996-3.625 20.75 0 7.33337 1.25 14.24997 3.75 20.75 2.5 6.50003 5.91665 12.12498 10.25 16.875 4.33335 4.75002 9.37497 8.5 15.125 11.25 5.75003 2.75 11.87497 4.125 18.375 4.125 4.1667 0 8.29165-.58333 12.375-1.75 4.08335-1.16667 7.87498-2.79166 11.375-4.875s6.5-4.45832 9-7.125c2.5-2.66668 4.25-5.5 5.25-8.5l16.5 5c-1.83334 4.6667-4.49998 8.9583-8 12.875-3.50002 3.9167-7.62498 7.33332-12.375 10.25-4.75002 2.91668-9.99997 5.16666-15.75 6.75-5.75003 1.58334-11.7083 2.375-17.875 2.375-9.50005 0-18.24996-1.79165-26.25-5.375-8.00004-3.58335-14.91664-8.49997-20.75-14.75-5.83336-6.25003-10.37498-13.4583-13.625-21.625-3.25002-8.1667-4.875-16.91662-4.875-26.25zM898.5 237h-17v-72.75c0-14.8334-2.54164-25.91663-7.625-33.25-5.08336-7.33337-12.54162-11-22.375-11-4.83336 0-9.62498.95832-14.375 2.875-4.75002 1.91668-9.2083 4.54165-13.375 7.875-4.1667 3.33335-7.79165 7.24998-10.875 11.75-3.08335 4.50002-5.375 9.41664-6.875 14.75V237h-17V54.5h17v81.75c5.33336-9.83338 12.5833-17.5833 21.75-23.25 9.1667-5.6667 18.99995-8.5 29.5-8.5 7.50004 0 13.87497 1.375 19.125 4.125 5.25003 2.75 9.49998 6.5833 12.75 11.5 3.25002 4.9167 5.625 10.8333 7.125 17.75 1.5 6.9167 2.25 14.54163 2.25 22.875V237zm92.25 2.5c-9.50005 0-18.24996-1.79165-26.25-5.375-8.00004-3.58335-14.91664-8.49997-20.75-14.75-5.83336-6.25003-10.37498-13.4583-13.625-21.625-3.25002-8.1667-4.875-16.91662-4.875-26.25 0-9.1667 1.62498-17.79163 4.875-25.875 3.25002-8.08337 7.79164-15.16664 13.625-21.25 5.83336-6.08336 12.7083-10.91665 20.625-14.5 7.9167-3.58335 16.62495-5.375 26.125-5.375 9.50005 0 18.2083 1.79165 26.125 5.375 7.9167 3.58335 14.7083 8.4583 20.375 14.625 5.6667 6.1667 10.08332 13.24996 13.25 21.25 3.16668 8.00004 4.75 16.49995 4.75 25.5 0 1.33334-.04167 2.66666-.125 4-.08333 1.33334-.20833 2.25-.375 2.75H943.25c.5 7.00003 2.125 13.4583 4.875 19.375 2.75 5.9167 6.24998 11.04164 10.5 15.375 4.25002 4.33336 9.16664 7.70832 14.75 10.125 5.58336 2.41668 11.54164 3.625 17.875 3.625 4.33335 0 8.5833-.58333 12.75-1.75 4.1667-1.16667 7.99998-2.75 11.5-4.75s6.625-4.45832 9.375-7.375c2.75-2.91668 4.875-6.12498 6.375-9.625l14.75 4c-2 4.83336-4.8333 9.2083-8.5 13.125-3.66668 3.9167-7.91664 7.33332-12.75 10.25-4.83336 2.91668-10.16664 5.16666-16 6.75-5.83336 1.58334-11.8333 2.375-18 2.375zm48-74.5c-.5-7.00003-2.125-13.37497-4.875-19.125-2.75-5.75003-6.24998-10.7083-10.5-14.875-4.25002-4.1667-9.2083-7.41666-14.875-9.75-5.6667-2.33334-11.66664-3.5-18-3.5-6.33336 0-12.3333 1.16666-18 3.5-5.6667 2.33334-10.62498 5.5833-14.875 9.75-4.25002 4.1667-7.66665 9.16664-10.25 15-2.58335 5.83336-4.125 12.16663-4.625 19h96zm103.5 65.75c-1 .5-2.45832 1.16666-4.375 2s-4.125 1.66666-6.625 2.5-5.33332 1.58333-8.5 2.25c-3.16668.66667-6.49998 1-10 1-3.66668 0-7.16665-.5-10.5-1.5-3.33335-1-6.25-2.54166-8.75-4.625s-4.5-4.70832-6-7.875c-1.5-3.16668-2.25-6.8333-2.25-11v-93.25h-18v-13.5h18v-44h17v44h30v13.5h-30v88.5c.33334 4.83336 1.99998 8.375 5 10.625s6.5833 3.375 10.75 3.375c4.83336 0 9.0833-.79166 12.75-2.375 3.6667-1.58334 6-2.70833 7-3.375l4.5 13.75z" fill="#5E5E5E"/></g></svg>
